svg/fluentui-system-icons/ic_fluent_document_folder_24_filled.svg

<svg width="24" height="24" viewBox="0 0 24 24" fill="none" xmlns="http://www.w3.org/2000/svg">
<path d="M18.5 6.75L18.4972 4.62704C19.3726 4.93512 20 5.76929 20 6.75V14.2491C19.6152 14.0886 19.193 14 18.75 14H18.5V6.75ZM4 4.25V7.24908C4.3848 7.08861 4.80705 7 5.25 7H8.0959C8.99962 7 9.86253 7.37629 10.4775 8.03853L16.0131 14H17.5V4.25C17.5 3.00736 16.4926 2 15.25 2H6.25C5.00736 2 4 3.00736 4 4.25ZM5.25 8C4.00736 8 3 9.00736 3 10.25V18.75C3 20.5449 4.45507 22 6.25 22H17.75C19.5449 22 21 20.5449 21 18.75V17.25C21 16.0074 19.9926 15 18.75 15H15.9041C15.6956 15 15.4964 14.9132 15.3545 14.7603L9.74468 8.71899C9.31895 8.26051 8.72155 8 8.0959 8H5.25Z" fill="#212121"/>
</svg>

<svg xmlns="http://www.w3.org/2000/svg" width="24" height="24"><path d="m18.5 6.75-.003-2.123A2.25 2.25 0 0 1 20 6.75v7.5a3.24 3.24 0 0 0-1.25-.25h-.25V6.75ZM4 4.25v3A3.24 3.24 0 0 1 5.25 7h2.846a3.25 3.25 0 0 1 2.381 1.039L16.014 14H17.5V4.25A2.25 2.25 0 0 0 15.25 2h-9A2.25 2.25 0 0 0 4 4.25ZM5.25 8A2.25 2.25 0 0 0 3 10.25v8.5A3.25 3.25 0 0 0 6.25 22h11.5A3.25 3.25 0 0 0 21 18.75v-1.5A2.25 2.25 0 0 0 18.75 15h-2.846a.75.75 0 0 1-.55-.24l-5.61-6.04A2.25 2.25 0 0 0 8.097 8H5.25Z"/></svg>
